src/icon.svg

<svg height="100" viewBox="0 0 100 100" width="100" xmlns="http://www.w3.org/2000/svg"><g fill="none" fill-rule="evenodd"><circle cx="50" cy="50" fill="#00a1d5" r="50"/><g fill="#fff" fill-rule="nonzero" transform="translate(15 30)"><path d="m48.6709429 29.9062418c.4397973-1.4659922.2931978-2.9319845-.4397984-3.8115798-.7329952-.8795954-1.7591903-1.4659923-3.0785833-1.6125915l-25.5082651-.2931984c-.1465991 0-.2931984-.1465993-.4397976-.1465993-.1465993-.1465992-.1465993-.2931984 0-.4397976.1465992-.2931985.2931985-.4397977.5863968-.4397977l25.6548648-.2931984c3.0785833-.1465993 6.3037661-2.6387861 7.4765596-5.5707706l1.4659925-3.8115799c0-.1465991.1465994-.2931984 0-.4397976-1.6125909-7.47656046-8.3561553-13.047331-16.2725133-13.047331-7.3299617 0-13.6337283 4.69117519-15.8327167 11.2881403-1.4659922-1.0261945-3.225183-1.61259147-5.2775721-1.46599225-3.5183814.29319845-6.3037666 3.22518295-6.7435644 6.74356435-.1465992.8795953 0 1.7591907.1465993 2.6387861-5.71736977.1465991-10.408545 4.8377743-10.408545 10.7017433 0 .5863969 0 1.0261947.14659925 1.6125915 0 .2931984.29319849.4397977.43979763.4397977h47.05835082c.2931989 0 .5863968-.1465993.5863968-.4397977z"/><path d="m56.7339003 13.4871286h-.7329962c-.1465995 0-.2931989.1465993-.4397984.2931985l-1.0261941 3.5183814c-.4397973 1.4659922-.2931989 2.9319845.4397973 3.8115799.7329963.8795953 1.7591914 1.4659922 3.0785844 1.6125914l5.4241715.2931984c.1465984 0 .2931978.1465993.4397973.1465993.1465995.1465992.1465995.2931985 0 .4397977-.1465995.2931984-.2931989.4397976-.5863968.4397976l-5.5707709.2931985c-3.0785833.1465992-6.3037661 2.638786-7.4765607 5.5707705l-.2931978 1.319393c-.1465995.1465993 0 .4397978.2931978.4397978h19.3510977c.2931989 0 .4397984-.1465993.4397984-.4397978.2931978-1.1727937.5863968-2.4921867.5863968-3.8115798 0-7.6231596-6.3037672-13.9269264-13.9269263-13.9269264"/></g></g></svg>

<?xml version="1.0" encoding="UTF-8"?>
<svg width="100px" height="100px" viewBox="0 0 100 100" version="1.1" xmlns="http://www.w3.org/2000/svg" xmlns:xlink="http://www.w3.org/1999/xlink">
    <defs></defs>
    <g stroke="none" stroke-width="1" fill="none" fill-rule="evenodd">
        <g id="cloudflare">
            <circle id="c" fill="#00A1D5" cx="50" cy="50" r="50"></circle>
            <g id="logo" transform="translate(15.000000, 30.000000)" fill-rule="nonzero" fill="#FFFFFF">
                <path d="M48.6709429,29.9062418 C49.1107402,28.4402496 48.9641407,26.9742573 48.2311445,26.094662 C47.4981493,25.2150666 46.4719542,24.6286697 45.1525612,24.4820705 L19.6442961,24.1888721 C19.497697,24.1888721 19.3510977,24.0422728 19.2044985,24.0422728 C19.0578992,23.8956736 19.0578992,23.7490744 19.2044985,23.6024752 C19.3510977,23.3092767 19.497697,23.1626775 19.7908953,23.1626775 L45.4457601,22.8694791 C48.5243434,22.7228798 51.7495262,20.230693 52.9223197,17.2987085 L54.3883122,13.4871286 C54.3883122,13.3405295 54.5349116,13.1939302 54.3883122,13.047331 C52.7757213,5.57077054 46.0321569,0 38.1157989,0 C30.7858372,0 24.4820706,4.69117519 22.2830822,11.2881403 C20.81709,10.2619458 19.0578992,9.67554883 17.0055101,9.82214805 C13.4871287,10.1153465 10.7017435,13.047331 10.2619457,16.5657124 C10.1153465,17.4453077 10.2619457,18.3249031 10.408545,19.2044985 C4.69117523,19.3510976 0,24.0422728 0,29.9062418 C0,30.4926387 0,30.9324365 0.146599247,31.5188333 C0.146599247,31.8120317 0.439797741,31.958631 0.586396877,31.958631 L47.6447477,31.958631 C47.9379466,31.958631 48.2311445,31.8120317 48.2311445,31.5188333 L48.6709429,29.9062418 L48.6709429,29.9062418 Z" id="Shape"></path>
                <path d="M56.7339003,13.4871286 L56.0009041,13.4871286 C55.8543046,13.4871286 55.7077052,13.6337279 55.5611057,13.7803271 L54.5349116,17.2987085 C54.0951143,18.7647007 54.2417127,20.230693 54.9747089,21.1102884 C55.7077052,21.9898837 56.7339003,22.5762806 58.0532933,22.7228798 L63.4774648,23.0160782 C63.6240632,23.0160782 63.7706626,23.1626775 63.9172621,23.1626775 C64.0638616,23.3092767 64.0638616,23.455876 63.9172621,23.6024752 C63.7706626,23.8956736 63.6240632,24.0422728 63.3308653,24.0422728 L57.7600944,24.3354713 C54.6815111,24.4820705 51.4563283,26.9742573 50.2835337,29.9062418 L49.9903359,31.2256348 C49.8437364,31.3722341 49.9903359,31.6654326 50.2835337,31.6654326 L69.6346314,31.6654326 C69.9278303,31.6654326 70.0744298,31.5188333 70.0744298,31.2256348 C70.3676276,30.0528411 70.6608266,28.7334481 70.6608266,27.414055 C70.6608266,19.7908954 64.3570594,13.4871286 56.7339003,13.4871286" id="Shape"></path>
            </g>
        </g>
    </g>
</svg>
